flaticon/army-badges/medal-24.svg

<svg xmlns="http://www.w3.org/2000/svg" width="32" height="32" viewBox="0 0 24 24">
    <path d="M 16.394531 6.789062 L 16.394531 2.796875 L 16.792969 2.796875 C 17.03125 2.796875 17.191406 2.636719 17.191406 2.394531 L 17.191406 0.398438 C 17.191406 0.160156 17.03125 0 16.792969 0 L 7.207031 0 C 6.96875 0 6.808594 0.160156 6.808594 0.398438 L 6.808594 2.394531 C 6.808594 2.636719 6.96875 2.796875 7.207031 2.796875 L 7.605469 2.796875 L 7.605469 9.183594 L 7.207031 9.183594 C 6.96875 9.183594 6.808594 9.34375 6.808594 9.585938 L 6.808594 11.582031 C 6.808594 11.820312 6.96875 11.980469 7.207031 11.980469 L 10.617188 11.980469 C 10.480469 12.214844 10.402344 12.488281 10.402344 12.777344 C 10.402344 13.433594 10.800781 13.996094 11.367188 14.242188 L 10.203125 15.972656 L 8.007812 15.972656 C 7.847656 15.972656 7.726562 16.054688 7.6875 16.214844 C 7.605469 16.332031 7.605469 16.492188 7.6875 16.613281 L 9.125 18.808594 L 7.6875 20.964844 C 7.566406 21.085938 7.566406 21.246094 7.648438 21.363281 C 7.726562 21.484375 7.847656 21.5625 8.007812 21.5625 L 10.203125 21.5625 L 11.679688 23.839844 C 11.761719 23.921875 11.878906 24 12 24 C 12.121094 24 12.238281 23.921875 12.320312 23.800781 L 13.796875 21.5625 L 15.992188 21.5625 C 16.152344 21.5625 16.234375 21.445312 16.3125 21.324219 C 16.394531 21.203125 16.394531 21.042969 16.3125 20.925781 L 14.875 18.769531 L 16.351562 16.574219 C 16.433594 16.453125 16.433594 16.292969 16.351562 16.171875 C 16.273438 16.054688 16.152344 15.972656 15.992188 15.972656 L 13.796875 15.972656 L 12.636719 14.25 C 13.199219 14.011719 13.597656 13.460938 13.597656 12.777344 C 13.597656 12.488281 13.519531 12.214844 13.382812 11.980469 L 16.792969 11.980469 C 17.03125 11.980469 17.191406 11.820312 17.191406 11.582031 L 17.191406 9.585938 C 17.191406 9.34375 17.03125 9.183594 16.792969 9.183594 L 16.394531 9.183594 Z M 15.59375 4.792969 L 8.40625 4.792969 L 8.40625 3.992188 L 15.59375 3.992188 Z M 8.40625 5.589844 L 15.59375 5.589844 L 15.59375 6.390625 L 8.40625 6.390625 Z M 8.40625 7.1875 L 15.59375 7.1875 L 15.59375 7.988281 L 8.40625 7.988281 Z M 7.605469 0.796875 L 16.394531 0.796875 L 16.394531 1.996094 L 15.992188 1.996094 L 15.992188 1.597656 C 15.992188 1.359375 15.832031 1.199219 15.59375 1.199219 L 8.40625 1.199219 C 8.167969 1.199219 8.007812 1.359375 8.007812 1.597656 L 8.007812 1.996094 L 7.605469 1.996094 Z M 8.804688 2.394531 L 8.804688 1.996094 L 15.195312 1.996094 L 15.195312 2.394531 C 15.195312 2.636719 15.355469 2.796875 15.59375 2.796875 L 15.59375 3.195312 L 8.40625 3.195312 L 8.40625 2.796875 C 8.644531 2.796875 8.804688 2.636719 8.804688 2.394531 Z M 13.597656 16.8125 L 15.234375 16.8125 L 14.035156 18.570312 C 13.957031 18.6875 13.957031 18.886719 14.035156 19.007812 L 15.234375 20.765625 L 13.597656 20.765625 C 13.476562 20.765625 13.359375 20.804688 13.277344 20.925781 L 12 22.84375 L 10.722656 20.925781 C 10.640625 20.84375 10.523438 20.765625 10.402344 20.765625 L 8.765625 20.765625 L 9.964844 19.007812 C 10.042969 18.886719 10.042969 18.6875 9.964844 18.570312 L 8.765625 16.773438 L 10.402344 16.773438 C 10.523438 16.773438 10.640625 16.730469 10.722656 16.613281 L 12 14.734375 L 13.277344 16.652344 C 13.359375 16.730469 13.476562 16.8125 13.597656 16.8125 Z M 12.796875 12.777344 C 12.796875 13.21875 12.4375 13.578125 12 13.578125 C 11.5625 13.578125 11.203125 13.21875 11.203125 12.777344 C 11.203125 12.339844 11.5625 11.980469 12 11.980469 C 12.4375 11.980469 12.796875 12.339844 12.796875 12.777344 Z M 16.394531 11.179688 L 7.605469 11.179688 L 7.605469 9.984375 L 8.007812 9.984375 L 8.007812 10.382812 C 8.007812 10.621094 8.167969 10.78125 8.40625 10.78125 L 15.59375 10.78125 C 15.832031 10.78125 15.992188 10.621094 15.992188 10.382812 L 15.992188 9.984375 L 16.394531 9.984375 Z M 15.195312 9.585938 L 15.195312 9.984375 L 8.804688 9.984375 L 8.804688 9.585938 C 8.804688 9.34375 8.644531 9.183594 8.40625 9.183594 L 8.40625 8.785156 L 15.59375 8.785156 L 15.59375 9.183594 C 15.355469 9.183594 15.195312 9.34375 15.195312 9.585938 Z M 15.195312 9.585938"/>
</svg>

<svg xmlns="http://www.w3.org/2000/svg" width="32" height="32" viewBox="0 0 24 24">
    <path d="M16.395 6.79V2.796h.398c.238 0 .398-.16.398-.402V.398c0-.238-.16-.398-.398-.398H7.207c-.238 0-.398.16-.398.398v1.997c0 .242.16.402.398.402h.398v6.387h-.398c-.238 0-.398.16-.398.402v1.996c0 .238.16.398.398.398h3.41a1.58 1.58 0 0 0-.215.797c0 .657.399 1.22.965 1.465l-1.164 1.73H8.008c-.16 0-.281.083-.32.243a.353.353 0 0 0 0 .398l1.437 2.196-1.438 2.156a.302.302 0 0 0-.039.398c.079.121.2.2.36.2h2.195l1.477 2.277c.082.082.199.16.32.16s.238-.078.32-.2l1.477-2.238h2.195c.16 0 .242-.117.32-.238a.353.353 0 0 0 0-.398l-1.437-2.156 1.477-2.196a.36.36 0 0 0 0-.402.422.422 0 0 0-.36-.2h-2.195l-1.16-1.722c.562-.238.96-.79.96-1.473 0-.289-.077-.562-.214-.797h3.41c.238 0 .398-.16.398-.398V9.586c0-.242-.16-.402-.398-.402h-.398zm-.801-1.997H8.406v-.8h7.188zm-7.188.797h7.188v.8H8.406zm0 1.598h7.188v.8H8.406zm-.8-6.391h8.789v1.2h-.403v-.4c0-.238-.16-.398-.398-.398H8.406c-.238 0-.398.16-.398.399v.398h-.403zm1.199 1.598v-.399h6.39v.399c0 .242.16.402.399.402v.398H8.406v-.398c.239 0 .399-.16.399-.402zm4.793 14.418h1.636l-1.199 1.757a.438.438 0 0 0 0 .438l1.2 1.758h-1.637a.363.363 0 0 0-.32.16L12 22.844l-1.277-1.918c-.082-.082-.2-.16-.32-.16H8.765l1.199-1.758a.438.438 0 0 0 0-.438l-1.2-1.797h1.637a.372.372 0 0 0 .32-.16L12 14.734l1.277 1.918c.082.078.2.16.32.16zm-.801-4.036c0 .442-.36.801-.797.801a.801.801 0 0 1-.797-.8.8.8 0 0 1 .797-.798.8.8 0 0 1 .797.797zm3.598-1.597h-8.79V9.984h.403v.399c0 .238.16.398.398.398h7.188c.238 0 .398-.16.398-.398v-.399h.403zm-1.2-1.594v.398h-6.39v-.398c0-.242-.16-.402-.399-.402v-.399h7.188v.399c-.239 0-.399.16-.399.402zm0 0"/>
</svg>
